images/icons/source/price-tag.svg

<svg width="72" height="72" viewBox="0 0 72 72" version="1.1" xmlns="http://www.w3.org/2000/svg" xmlns:xlink="http://www.w3.org/1999/xlink" xmlns:figma="http://www.figma.com/figma/ns">
<title>price-tag</title>
<desc>Created using Figma</desc>
<g id="Canvas" transform="translate(-143 205)" figma:type="canvas">
<mask id="mask0_alpha" mask-type="alpha">
<path d="M 143 -205L 215 -205L 215 -133L 143 -133L 143 -205Z" fill="#FFFFFF"/>
</mask>
<g id="price-tag" style="mix-blend-mode:normal;" mask="url(#mask0_alpha)" figma:type="frame">
<g id="Vector" style="mix-blend-mode:normal;" figma:type="vector">
<use xlink:href="#path0_fill" transform="translate(145 -191)" fill="#3BB75E" style="mix-blend-mode:normal;"/>
</g>
<g id="Vector" style="mix-blend-mode:normal;" figma:type="vector">
<use xlink:href="#path1_fill" transform="translate(180.303 -180.199)" fill="#3BB75E" style="mix-blend-mode:normal;"/>
</g>
<g id="Vector" style="mix-blend-mode:normal;" figma:type="vector">
<use xlink:href="#path2_fill" transform="translate(152.28 -191)" fill="#3BB75E" style="mix-blend-mode:normal;"/>
</g>
<g id="Subtract" style="mix-blend-mode:normal;" figma:type="vector-operation">
<use xlink:href="#path3_fill" transform="translate(161.798 -203)" fill="#3BB75E" style="mix-blend-mode:normal;"/>
</g>
</g>
</g>
<defs>
<path id="path0_fill" d="M 50.8526 1.12152e-07L 34.6478 1.12152e-07C 34.0694 1.12152e-07 33.5996 0.4692 33.5996 1.0482C 33.5996 1.6266 34.0694 2.0976 34.6478 2.0976L 50.8526 2.0976C 52.964 2.0976 55.202 4.3356 55.202 6.4452L 55.202 19.9488C 55.202 22.5606 55.202 23.7498 54.6362 24.8826C 54.0368 26.0796 52.7246 27.3912 50.1068 30.009L 25.8026 54.3054C 23.963 56.1462 22.2206 54.6264 21.8912 54.3054L 2.99118 35.412C 2.67018 35.079 1.14558 33.3342 2.98638 31.4952L 5.08278 29.3982C 10.8656 23.6154 26.4398 8.0418 27.2888 7.1922C 27.7016 6.78 27.7016 6.1188 27.2888 5.7054C 26.8772 5.2932 26.2142 5.2932 25.802 5.7054C 24.9548 6.5556 9.38058 22.1292 3.59838 27.9126L 1.50678 30.0084C 0.117177 31.392 -0.326823 33.0894 0.239577 34.7946C 0.637977 36.0048 1.41678 36.8088 1.50678 36.8922L 20.4068 55.791C 20.4908 55.8816 21.2882 56.6538 22.5032 57.0588C 22.9856 57.2202 23.462 57.2976 23.9378 57.2976C 25.1402 57.2976 26.2994 56.7894 27.2888 55.791L 51.5912 31.4946C 57.0848 26.0004 57.2984 25.7814 57.2984 19.9482L 57.2984 6.4446C 57.299 3.1902 54.1076 1.12152e-07 50.8526 1.12152e-07Z"/>
<path id="path1_fill" d="M 6.4458 10.8012C 4.0446 10.8012 2.097 8.8458 2.097 6.453C 2.097 5.8722 1.6272 5.397 1.0482 5.397C 0.467999 5.397 6.40869e-07 5.8722 6.40869e-07 6.453C 6.40869e-07 10.0026 2.8878 12.8982 6.4458 12.8982C 10.002 12.8982 12.8976 10.0026 12.8976 6.453C 12.8976 2.8932 10.002 4.85229e-07 6.4458 4.85229e-07C 5.8662 4.85229e-07 5.397 0.4692 5.397 1.0482C 5.397 1.6272 5.8662 2.097 6.4458 2.097C 8.844 2.097 10.7946 4.0524 10.7946 6.453C 10.7946 8.8458 8.844 10.8012 6.4458 10.8012Z"/>
<path id="path2_fill" d="M 2.06647 21.0024C 2.14987 21.0024 2.23927 20.991 2.32327 20.9712C 2.88307 20.8296 3.23107 20.2578 3.08887 19.6986C 1.46047 13.2 1.87867 7.7514 4.22047 4.7472C 5.59747 2.9922 7.59187 2.0988 10.1647 2.0988C 16.4563 2.0988 29.3089 13.5726 33.7273 17.9934C 34.1395 18.4044 34.8013 18.4044 35.2141 17.9934C 35.6197 17.5806 35.6197 16.9182 35.2141 16.506C 34.5391 15.8322 18.6049 0 10.1647 0C 6.96067 0 4.33027 1.1964 2.56747 3.4554C -0.217731 7.026 -0.757732 12.9768 1.04947 20.2062C 1.16527 20.682 1.59667 21.0024 2.06647 21.0024Z"/>
<path id="path3_fill" fill-rule="evenodd" d="M 26 52C 40.3594 52 52 40.3594 52 26C 52 11.6406 40.3594 0 26 0C 11.6406 0 0 11.6406 0 26C 0 27.2401 0.0868225 28.4599 0.254715 29.6538L 1.70222 27L 2.03145 27.2394C 2.01056 26.8289 2 26.4157 2 26C 2 12.7452 12.7452 2 26 2C 39.2548 2 50 12.7452 50 26C 50 39.0801 39.5363 49.7162 26.523 49.9944L 24.7547 51.9707C 25.1674 51.9902 25.5826 52 26 52Z"/>
</defs>
</svg>

<svg width="72" height="72" viewBox="0 0 72 72" xmlns="http://www.w3.org/2000/svg" xmlns:xlink="http://www.w3.org/1999/xlink" xmlns:figma="http://www.figma.com/figma/ns">
    <title>
        price-tag
    </title>
    <desc>
        Created using Figma
    </desc>
    <g transform="translate(-143 205)" figma:type="canvas">
        <mask id="a">
            <path d="M143-205h72v72h-72v-72z" fill="#FFF"/>
        </mask>
        <g style="mix-blend-mode:normal" mask="url(#a)" figma:type="frame">
            <use xlink:href="#b" transform="translate(145 -191)" fill="#3BB75E" style="mix-blend-mode:normal" figma:type="vector"/>
            <use xlink:href="#c" transform="translate(180.303 -180.199)" fill="#3BB75E" style="mix-blend-mode:normal" figma:type="vector"/>
            <use xlink:href="#d" transform="translate(152.28 -191)" fill="#3BB75E" style="mix-blend-mode:normal" figma:type="vector"/>
            <use xlink:href="#e" transform="translate(161.798 -203)" fill="#3BB75E" style="mix-blend-mode:normal" figma:type="vector-operation"/>
        </g>
    </g>
    <defs>
        <path id="b" d="M50.853 0H34.648a1.048 1.048 0 0 0 0 2.098h16.205c2.111 0 4.349 2.238 4.349 4.347V19.95c0 2.612 0 3.8-.566 4.934-.6 1.197-1.911 2.508-4.53 5.126L25.804 54.305c-1.84 1.841-3.582.321-3.912 0l-18.9-18.893c-.32-.333-1.845-2.078-.005-3.917l2.097-2.097L27.289 7.192a1.047 1.047 0 0 0 0-1.487 1.048 1.048 0 0 0-1.487 0c-.847.85-16.421 16.424-22.204 22.208l-2.091 2.095C.117 31.392-.327 33.09.24 34.795c.398 1.21 1.177 2.014 1.267 2.097l18.9 18.899c.084.09.881.863 2.096 1.268.483.161.959.239 1.435.239 1.202 0 2.361-.509 3.35-1.507l24.303-24.296c5.494-5.495 5.707-5.714 5.707-11.547V6.445C57.3 3.19 54.108 0 50.853 0z"/>
        <path id="c" d="M6.446 10.801a4.354 4.354 0 0 1-4.349-4.348c0-.58-.47-1.056-1.049-1.056C.468 5.397 0 5.872 0 6.453a6.453 6.453 0 0 0 6.446 6.445c3.556 0 6.452-2.895 6.452-6.445A6.46 6.46 0 0 0 6.446 0a1.048 1.048 0 1 0 0 2.097 4.358 4.358 0 0 1 4.349 4.356 4.356 4.356 0 0 1-4.35 4.348z"/>
        <path id="d" d="M2.066 21.002a1.053 1.053 0 0 0 1.022-1.304C1.46 13.2 1.879 7.752 4.22 4.749c1.377-1.756 3.372-2.65 5.945-2.65 6.291 0 19.144 11.475 23.562 15.895a1.05 1.05 0 0 0 1.487 0 1.061 1.061 0 0 0 0-1.487C34.54 15.832 18.604 0 10.164 0 6.962 0 4.33 1.196 2.568 3.455-.218 7.026-.758 12.977 1.05 20.206a1.05 1.05 0 0 0 1.017.796z"/>
        <path id="e" fill-rule="evenodd" d="M26 52c14.36 0 26-11.64 26-26S40.36 0 26 0 0 11.64 0 26c0 1.24.087 2.46.255 3.654L1.702 27l.33.24C2.01 26.828 2 26.415 2 26 2 12.745 12.745 2 26 2s24 10.745 24 24c0 13.08-10.464 23.716-23.477 23.994l-1.768 1.977c.412.02.828.029 1.245.029z"/>
    </defs>
</svg>
